src/icons/svg/eye.svg

<?xml version="1.0" encoding="UTF-8" standalone="no"?>
<svg width="128px" height="64px" viewBox="0 0 128 64" version="1.1" xmlns="http://www.w3.org/2000/svg" xmlns:xlink="http://www.w3.org/1999/xlink">
    <!-- Generator: Sketch 40 (33762) - http://www.bohemiancoding.com/sketch -->
    <title>eye</title>
    <desc>Created with Sketch.</desc>
    <defs></defs>
    <g id="Page-1" stroke="none" stroke-width="1" fill="none" fill-rule="evenodd">
        <g id="eye" fill="#000000">
            <path d="M127.071862,7.9937507 C128.442529,5.7859096 127.98559,2.84201395 126.158134,1.12471472 C124.102209,-0.59258467 121.360875,-0.101881537 119.761739,2.10595941 C119.533269,2.35131098 94.1763047,34.4884891 64.0219307,34.4884891 C34.7814349,34.4884891 8.28212286,2.10595941 8.05365328,1.86076926 C6.4545167,-0.101881695 3.48486341,-0.347071842 1.65725725,1.37006613 C-0.170348917,3.08736552 -0.398668183,6.27645131 1.20031824,8.23910227 C1.65725725,8.97499555 7.13977512,15.5986801 15.8205662,22.9584192 L4.16997152,35.960437 C2.34236536,37.9230879 2.57083494,41.1121737 4.3984411,42.8294731 C4.85538011,43.810718 5.99757769,44.3014209 7.13977512,44.3014209 C8.28197255,44.3014209 9.42417013,43.810718 10.3378981,42.8294731 L22.9022206,28.8462107 C28.8416775,33.2620541 35.923332,37.4325462 43.690395,40.3762804 L38.8931354,57.7941416 C38.207877,60.4926857 39.578544,63.19123 42.0912584,63.9271231 L43.4619254,63.9271231 C45.5178509,63.9271231 47.3454569,62.4551753 47.8022457,60.2473341 L52.5995052,42.8294731 C56.2545672,43.5653664 60.1380986,44.0560694 64.0216302,44.0560694 C67.9051618,44.0560694 71.7886933,43.5653664 75.4437553,42.8294731 L80.2410148,60.0019827 C80.6979538,62.2098238 82.7538792,63.6817717 84.5814854,63.6817717 C85.0384244,63.6817717 85.4952134,63.6817717 85.7236828,63.4364201 C88.2365472,62.7003656 89.6072142,60.0019827 88.921956,57.3034385 L84.1246965,40.1309289 C91.8917596,37.1870332 98.973414,33.0165412 104.912871,28.6008591 L117.248724,42.3389314 C118.162452,43.3201762 119.304649,43.8108792 120.446847,43.8108792 C121.589044,43.8108792 122.731242,43.3201762 123.64497,42.3389314 C125.472576,40.3762804 125.472576,37.4325462 123.873439,35.4698953 L112.222845,22.4678775 C121.589194,15.1081384 127.071862,7.9937507 127.071862,7.9937507 L127.071862,7.9937507 Z" id="Shape"></path>
        </g>
    </g>
</svg>

<svg width="128" height="64" xmlns="http://www.w3.org/2000/svg"><path d="M127.072 7.994c1.37-2.208.914-5.152-.914-6.87-2.056-1.717-4.797-1.226-6.396.982-.229.245-25.586 32.382-55.74 32.382-29.24 0-55.74-32.382-55.968-32.627-1.6-1.963-4.57-2.208-6.397-.49C-.17 3.086-.399 6.275 1.2 8.238c.457.736 5.94 7.36 14.62 14.72L4.17 35.96c-1.828 1.963-1.6 5.152.228 6.87.457.98 1.6 1.471 2.742 1.471s2.284-.49 3.198-1.472l12.564-13.983c5.94 4.416 13.021 8.587 20.788 11.53l-4.797 17.418c-.685 2.699.686 5.397 3.198 6.133h1.37c2.057 0 3.884-1.472 4.341-3.68L52.6 42.83c3.655.736 7.538 1.227 11.422 1.227 3.883 0 7.767-.49 11.422-1.227l4.797 17.173c.457 2.208 2.513 3.68 4.34 3.68.457 0 .914 0 1.143-.246 2.513-.736 3.883-3.434 3.198-6.133l-4.797-17.172c7.767-2.944 14.848-7.114 20.788-11.53l12.336 13.738c.913.981 2.056 1.472 3.198 1.472s2.284-.49 3.198-1.472c1.828-1.963 1.828-4.906.228-6.87l-11.65-13.001c9.366-7.36 14.849-14.474 14.849-14.474z" fill-rule="evenodd"/></svg>
